Origami/22x22/apps/full-throttle-remastered.svg

<svg width="22" height="22" version="1" xmlns="http://www.w3.org/2000/svg">
 <rect transform="matrix(0,-1,-1,0,0,0)" x="-21" y="-21" width="20" height="20" rx="1" ry="1" style="fill:#8a4b2c"/>
 <path d="m1 2.5v-0.5c0-0.554 0.446-1 1-1h18c0.554 0 1 0.446 1 1v0.5c0-0.554-0.446-1-1-1h-18c-0.554 0-1 0.446-1 1z" style="fill:#ffffff;opacity:.1"/>
 <path d="m1 20v0.5c0 0.554 0.446 1 1 1h18c0.554 0 1-0.446 1-1v-0.5c0 0.554-0.446 1-1 1h-18c-0.554 0-1-0.446-1-1z" style="opacity:.2"/>
 <path d="m7.2857457 16.310809c0.060909-0.100071 0.2341915-0.32137 0.38507-0.491774s0.274324-0.27705 0.274324-0.297899c0-0.02617-0.043775-0.0309-0.141318-0.01527l-0.8038217-0.005866-0.011558-2.48667c-0.014936-3.213497-0.036265-2.905465 0.2584195-3.053379 0.2131711-0.107002 0.478672-0.2733 0.713573-0.310816 0.3999641-0.06388 0.6714381 0.232742 0.8697596 0.619549 0.054322 0.105949 0.1162395 0.185914 0.138309 0.178623 0.063025-0.02082 0.074553-2.914661 0.011625-2.914661-0.02517 0-0.072574 0.069614-0.1053405 0.1546975-0.083204 0.2160605-0.2786726 0.71379-0.5120805 0.817667-0.2438591 0.108529-1.0205731 0.383048-1.18266 0.383048-0.065669 0-0.1373511-0.017805-0.159298-0.03957-0.03019-0.02994-0.03978-0.537655-0.03939-2.085674 3.325e-4 -1.1253575 0.012025-2.064077 0.0261-2.086044 0.1250214-0.1950939 0.7908095-0.2758723 1.4684455-0.1250335 0.6566394 0.1170379 1.1035274 0.6297363 1.3942004 0.9045255 0.01443 0.027205 0.04704 0.049465 0.07248 0.049465 0.03856 0 0.0478-0.01382 0.05551-1.0857906 0.0051-0.7073156 7.5e-4 -1.8210556-0.0097-1.8634629-0.016-0.065176-0.02686-0.070582-0.07016-0.034948 0 0-0.226311 0.7764451-0.345848 0.9035154l-0.104053 0.0868442-0.6375387-0.0112706c-0.3505916-0.0061979-0.6716251 1.649e-4 -1.9348111-0.00123-1.263186-0.001385-3.8222764 0.0196005-3.8529842 0.0312865 0.3969979 0.3251442 1.5610479 0.9625731 1.9276565 1.408826 0.069984 0.2607085 0.067467 3.743816-0.0029 4.039884-0.050698 0.4747755-0.9677565 0.9529365-0.9677565 0.9529365l0.978597 0.851818c0.04832 0.192117 0.04086 6.10983 0.04086 6.10983l-1.019457 0.606034 1 1 1 1c0.2742171-1.121327 0.7086947-2.19008 1.2857457-3.189191z" style="opacity:.2"/>
 <path d="m7.2857457 15.810809c0.060909-0.100071 0.2341915-0.32137 0.38507-0.491774s0.274324-0.27705 0.274324-0.297899c0-0.02617-0.043775-0.0309-0.141318-0.01527l-0.8038217-0.005866-0.011558-2.48667c-0.014936-3.213497-0.036265-2.905465 0.2584195-3.053379 0.2131711-0.107002 0.478672-0.2733 0.713573-0.310816 0.3999641-0.06388 0.6714381 0.232742 0.8697596 0.619549 0.054322 0.105949 0.1162395 0.185914 0.138309 0.178623 0.063025-0.02082 0.074553-2.914661 0.011625-2.914661-0.02517 0-0.072574 0.069614-0.1053405 0.1546975-0.083204 0.2160605-0.2786726 0.71379-0.5120805 0.817667-0.2438591 0.108529-1.0205731 0.383048-1.18266 0.383048-0.065669 0-0.1373511-0.017805-0.159298-0.03957-0.03019-0.02994-0.03978-0.537655-0.03939-2.085674 3.325e-4 -1.1253575 0.012025-2.064077 0.0261-2.086044 0.1250214-0.1950939 0.7908095-0.2758723 1.4684455-0.1250335 0.6566394 0.1170379 1.1035274 0.6297363 1.3942004 0.9045255 0.01443 0.027205 0.04704 0.049465 0.07248 0.049465 0.03856 0 0.0478-0.01382 0.05551-1.0857906 0.0051-0.7073156 7.5e-4 -1.8210556-0.0097-1.8634629-0.016-0.065176-0.02686-0.070582-0.07016-0.034948 0 0-0.226311 0.7764451-0.345848 0.9035154l-0.104053 0.0868442-0.6375387-0.0112706c-0.3505916-0.0061979-0.6716251 1.649e-4 -1.9348111-0.00123-1.263186-0.001385-3.8222764 0.0196005-3.8529842 0.0312865 0.3969979 0.3251442 1.5610479 0.9625731 1.9276565 1.408826 0.069984 0.2607085 0.067467 3.743816-0.0029 4.039884-0.050698 0.4747759-0.9677565 0.9529365-0.9677565 0.9529365l0.978597 0.851818c0.04832 0.192117 0.04086 6.10983 0.04086 6.10983l-1.019457 0.606034 1 1 1 1c0.2742171-1.121327 0.7086947-2.19008 1.2857457-3.189191z" style="fill:#fbb64a"/>
 <path d="m12.038086 4.5c-0.03523 0.021605-0.04251 0.8804225-0.03515 1.805171 0.0107 1.3446485 0.01792 1.3742505 0.241211 0.986328 0.154533-0.268486 0.443096-0.7083015 0.668941-0.7910155 0.13142-0.04813-0.18359 0.00694 0.29933-0.0049 0.552131-0.013515 0.685983-0.00795 0.738281 0.043945 0.05352 0.053096 0.103826-0.2024015 0.05859 1.02979v1.37207l-1.009289 0.5586115 0.991705 0.825178 0.01074 3.146484c0.0098 3.125395 0.0086 2.966253-0.06348 3.028329-0.152862 0.075733-0.938965 0.500009-0.938965 0.500009s0.981701 0.373027 1.182129 0.499991l0.867871 1.000009 0.95-0.999992c0-8e-6 0.752042-0.346075 1-0.500008-0.136197-0.09867-0.780045-0.421332-0.939453-0.499992-0.07211-0.06208-0.07327 0.09706-0.06348-3.028328l0.01074-3.146484 0.992193-0.825196-1.00977-0.558594v-1.37207c-0.04523-1.2321915 0.0051-0.976694 0.05859-1.02979 0.0523-0.05189 0.186151-0.057461 0.738281-0.043945 0.48292 0.011825 0.1684-0.043245 0.299821 0.0049 0.225844 0.082714 0.514407 0.5225295 0.668945 0.7910155 0.223284 0.3879225 0.230516 0.3583205 0.241211-0.986328 0.0074-0.9247485 7.4e-5 -1.7835835-0.03515-1.8051885l-0.409179 0.9770635c-0.05394 0.027332-0.936736 0.023078-2.302749 0.02342-1.366013-3.425e-4 -2.748796 0.0039-2.802734-0.023435z" style="opacity:.2"/>
 <path d="m12.038086 4c-0.03523 0.021605-0.04251 0.8804225-0.03515 1.805171 0.0107 1.3446485 0.01792 1.3742505 0.241211 0.986328 0.154533-0.268486 0.443096-0.7083015 0.668941-0.7910155 0.13142-0.04813-0.18359 0.00694 0.29933-0.0049 0.552131-0.013515 0.685983-0.00795 0.738281 0.043945 0.05352 0.053096 0.103826-0.2024015 0.05859 1.02979v1.37207l-1.009289 0.5586115 0.991705 0.825178 0.01074 3.146484c0.0098 3.125395 0.0086 2.966253-0.06348 3.028329-0.152862 0.075733-0.938965 0.500009-0.938965 0.500009s0.981701 0.373027 1.182129 0.499991l0.867871 1.000009 0.95-0.999992c0-8e-6 0.752042-0.346075 1-0.500008-0.136197-0.09867-0.780045-0.421332-0.939453-0.499992-0.07211-0.06208-0.07327 0.09706-0.06348-3.028328l0.01074-3.146484 0.992193-0.825196-1.00977-0.558594v-1.37207c-0.04523-1.2321915 0.0051-0.976694 0.05859-1.02979 0.0523-0.05189 0.186151-0.057461 0.738281-0.043945 0.48292 0.011825 0.1684-0.043245 0.299821 0.0049 0.225844 0.082714 0.514407 0.5225295 0.668945 0.7910155 0.223284 0.3879225 0.230516 0.3583205 0.241211-0.986328 0.0074-0.9247485 7.4e-5 -1.7835835-0.03515-1.8051885l-0.409179 0.9770635c-0.05394 0.027332-0.936736 0.023078-2.302749 0.02342-1.366013-3.425e-4 -2.748796 0.0039-2.802734-0.023435z" style="fill:#fbb64a"/>
</svg>

<svg xmlns="http://www.w3.org/2000/svg" width="22" height="22" version="1">
 <rect style="fill:#8a4b2c" width="20" height="20" x="-21" y="-21" rx="1" ry="1" transform="matrix(0,-1,-1,0,0,0)"/>
 <path style="opacity:0.1;fill:#ffffff" d="M 1,2.5 1,2 C 1,1.446 1.446,1 2,1 l 18,0 c 0.554,0 1,0.446 1,1 l 0,0.5 c 0,-0.554 -0.446,-1 -1,-1 l -18,0 c -0.554,0 -1,0.446 -1,1 z"/>
 <path style="opacity:0.2" d="m 1,20 0,0.5 c 0,0.554 0.446,1 1,1 l 18,0 c 0.554,0 1,-0.446 1,-1 L 21,20 c 0,0.554 -0.446,1 -1,1 L 2,21 C 1.446,21 1,20.554 1,20 Z"/>
 <path style="opacity:0.2" d="m 7.2857457,16.310809 c 0.060909,-0.100071 0.2341915,-0.32137 0.38507,-0.491774 0.1508785,-0.170404 0.274324,-0.27705 0.274324,-0.297899 0,-0.02617 -0.043775,-0.0309 -0.141318,-0.01527 C 7,15.5 7,15.5 7,15.5 c 0,0 0,0 -0.011558,-2.48667 -0.014936,-3.213497 -0.036265,-2.905465 0.2584195,-3.053379 0.2131711,-0.107002 0.478672,-0.2733 0.713573,-0.310816 0.3999641,-0.06388 0.6714381,0.232742 0.8697596,0.619549 0.054322,0.105949 0.1162395,0.185914 0.138309,0.178623 0.063025,-0.02082 0.074553,-2.914661 0.011625,-2.914661 -0.02517,0 -0.072574,0.069614 -0.1053405,0.1546975 -0.083204,0.2160605 -0.2786726,0.71379 -0.5120805,0.817667 -0.2438591,0.108529 -1.0205731,0.383048 -1.18266,0.383048 -0.065669,0 -0.1373511,-0.017805 -0.159298,-0.03957 -0.03019,-0.02994 -0.03978,-0.537655 -0.03939,-2.085674 3.325e-4,-1.1253575 0.012025,-2.064077 0.0261,-2.086044 C 7.1324805,4.4816766 7.7982686,4.4008982 8.4759046,4.551737 9.132544,4.6687749 9.579432,5.1814733 9.870105,5.4562625 c 0.01443,0.027205 0.04704,0.049465 0.07248,0.049465 0.03856,0 0.0478,-0.01382 0.05551,-1.0857906 0.0051,-0.7073156 7.5e-4,-1.8210556 -0.0097,-1.8634629 -0.016,-0.065176 -0.02686,-0.070582 -0.07016,-0.034948 0,0 -0.226311,0.7764451 -0.345848,0.9035154 L 9.468334,3.5118856 8.8307953,3.500615 C 8.4802037,3.4944171 8.1591702,3.5007799 6.8959842,3.499385 5.6327982,3.498 3.0737078,3.5189855 3.043,3.5306715 c 0.3969979,0.3251442 1.5610479,0.9625731 1.9276565,1.408826 0.069984,0.2607085 0.067467,3.743816 -0.0029,4.039884 C 4.9170585,9.454157 4,9.932318 4,9.932318 l 0.978597,0.851818 c 0.04832,0.192117 0.04086,6.10983 0.04086,6.10983 L 4,17.5 l 1,1 1,1 c 0.2742171,-1.121327 0.7086947,-2.19008 1.2857457,-3.189191 z"/>
 <path style="fill:#fbb64a" d="m 7.2857457,15.810809 c 0.060909,-0.100071 0.2341915,-0.32137 0.38507,-0.491774 0.1508785,-0.170404 0.274324,-0.27705 0.274324,-0.297899 0,-0.02617 -0.043775,-0.0309 -0.141318,-0.01527 C 7,15 7,15 7,15 7,15 7,15 6.988442,12.51333 6.973506,9.299833 6.952177,9.607865 7.2468615,9.459951 c 0.2131711,-0.107002 0.478672,-0.2733 0.713573,-0.310816 0.3999641,-0.06388 0.6714381,0.232742 0.8697596,0.619549 0.054322,0.105949 0.1162395,0.185914 0.138309,0.178623 0.063025,-0.02082 0.074553,-2.914661 0.011625,-2.914661 -0.02517,0 -0.072574,0.069614 -0.1053405,0.1546975 -0.083204,0.2160605 -0.2786726,0.71379 -0.5120805,0.817667 -0.2438591,0.108529 -1.0205731,0.383048 -1.18266,0.383048 -0.065669,0 -0.1373511,-0.017805 -0.159298,-0.03957 -0.03019,-0.02994 -0.03978,-0.537655 -0.03939,-2.085674 3.325e-4,-1.1253575 0.012025,-2.064077 0.0261,-2.086044 C 7.1324805,3.9816766 7.7982686,3.9008982 8.4759046,4.051737 9.132544,4.1687749 9.579432,4.6814733 9.870105,4.9562625 c 0.01443,0.027205 0.04704,0.049465 0.07248,0.049465 0.03856,0 0.0478,-0.01382 0.05551,-1.0857906 0.0051,-0.7073156 7.5e-4,-1.8210556 -0.0097,-1.8634629 -0.016,-0.065176 -0.02686,-0.070582 -0.07016,-0.034948 0,0 -0.226311,0.7764451 -0.345848,0.9035154 L 9.468334,3.0118856 8.8307953,3.000615 C 8.4802037,2.9944171 8.1591702,3.0007799 6.8959842,2.999385 5.6327982,2.998 3.0737078,3.0189855 3.043,3.0306715 c 0.3969979,0.3251442 1.5610479,0.9625731 1.9276565,1.408826 0.069984,0.2607085 0.067467,3.743816 -0.0029,4.039884 C 4.9170585,8.9541574 4,9.432318 4,9.432318 l 0.978597,0.851818 c 0.04832,0.192117 0.04086,6.10983 0.04086,6.10983 L 4,17 l 1,1 1,1 c 0.2742171,-1.121327 0.7086947,-2.19008 1.2857457,-3.189191 z"/>
 <path style="opacity:0.2" d="m 12.038086,4.5 c -0.03523,0.021605 -0.04251,0.8804225 -0.03515,1.805171 0.0107,1.3446485 0.01792,1.3742505 0.241211,0.986328 0.154533,-0.268486 0.443096,-0.7083015 0.668941,-0.7910155 0.13142,-0.04813 -0.18359,0.00694 0.29933,-0.0049 0.552131,-0.013515 0.685983,-0.00795 0.738281,0.043945 0.05352,0.053096 0.103826,-0.2024015 0.05859,1.02979 l 0,1.37207 L 13,9.5 l 0.991705,0.825178 0.01074,3.146484 c 0.0098,3.125395 0.0086,2.966253 -0.06348,3.028329 C 13.786103,16.575724 13,17 13,17 c 0,0 0.981701,0.373027 1.182129,0.499991 L 15.05,18.5 16,17.500008 C 16,17.5 16.752042,17.153933 17,17 c -0.136197,-0.09867 -0.780045,-0.421332 -0.939453,-0.499992 -0.07211,-0.06208 -0.07327,0.09706 -0.06348,-3.028328 L 16.007807,10.325196 17,9.5 15.99023,8.941406 l 0,-1.37207 c -0.04523,-1.2321915 0.0051,-0.976694 0.05859,-1.02979 0.0523,-0.05189 0.186151,-0.057461 0.738281,-0.043945 0.48292,0.011825 0.1684,-0.043245 0.299821,0.0049 0.225844,0.082714 0.514407,0.5225295 0.668945,0.7910155 0.223284,0.3879225 0.230516,0.3583205 0.241211,-0.986328 C 18.004478,5.38044 17.997152,4.521605 17.961928,4.5 l -0.409179,0.9770635 c -0.05394,0.027332 -0.936736,0.023078 -2.302749,0.02342 -1.366013,-3.425e-4 -2.748796,0.0039 -2.802734,-0.023435 z"/>
 <path style="fill:#fbb64a" d="m 12.038086,4 c -0.03523,0.021605 -0.04251,0.8804225 -0.03515,1.805171 0.0107,1.3446485 0.01792,1.3742505 0.241211,0.986328 0.154533,-0.268486 0.443096,-0.7083015 0.668941,-0.7910155 0.13142,-0.04813 -0.18359,0.00694 0.29933,-0.0049 0.552131,-0.013515 0.685983,-0.00795 0.738281,0.043945 0.05352,0.053096 0.103826,-0.2024015 0.05859,1.02979 l 0,1.37207 L 13,9 l 0.991705,0.825178 0.01074,3.146484 c 0.0098,3.125395 0.0086,2.966253 -0.06348,3.028329 C 13.786103,16.075724 13,16.5 13,16.5 c 0,0 0.981701,0.373027 1.182129,0.499991 L 15.05,18 16,17.000008 C 16,17 16.752042,16.653933 17,16.5 c -0.136197,-0.09867 -0.780045,-0.421332 -0.939453,-0.499992 -0.07211,-0.06208 -0.07327,0.09706 -0.06348,-3.028328 L 16.007807,9.825196 17,9 15.99023,8.441406 l 0,-1.37207 c -0.04523,-1.2321915 0.0051,-0.976694 0.05859,-1.02979 0.0523,-0.05189 0.186151,-0.057461 0.738281,-0.043945 0.48292,0.011825 0.1684,-0.043245 0.299821,0.0049 0.225844,0.082714 0.514407,0.5225295 0.668945,0.7910155 0.223284,0.3879225 0.230516,0.3583205 0.241211,-0.986328 C 18.004478,4.88044 17.997152,4.021605 17.961928,4 l -0.409179,0.9770635 c -0.05394,0.027332 -0.936736,0.023078 -2.302749,0.02342 -1.366013,-3.425e-4 -2.748796,0.0039 -2.802734,-0.023435 z"/>
</svg>
